!!!OTL: Chazi zhai lai yuan dingdang
!!!ARE: Asia, China,ÿHunan, Lingxian
!! I, 548
!!!SCT: C1471
!!!YEM: Copyright 1995, estate of Helmut Schaffrath.
**kern
*ICvox
*Ivox
*M2/4
*k[f#c#g#d#]
*E:
{8b
8b
8ee
16ee
16cc#
=1
8ee
8ee
4gg#}
=2
{8ee
8cc#
8.b
16g#
=3
8ee
8cc#
8.b
16g#}
=4
{8gg#
8gg#
8ee
16ee
16ee
=5
8g#
8g#
8ee
8ee}
=6
{8cc#
8gg#
8ee
8ee
=7
16cc#
16cc#
16cc#
16cc#
4b
=8
4g#
4r}
==
!!!AGN: Shange, Kejia shange
!!!ONB: ESAC (Essen Associative Code) Database: HUANG
!!!AMT: simple duple
!!!AIN: vox
!!!EED: Helmut Schaffrath
!!!EEV: 1.0
*-
